X: 1977
T: Yegâh Aranağme (Aksak)
C: ?
O: Turkey
F: http://compmusic.upf.edu/node/140
N: yegah--aranagme--aksak--1--
N: makam= yegah
N: form= aranagme
N: usul= aksak = 9/8
M: 9/8
L: 1/16
K: C _2/4B ^f  
Q: 1/4=168
%%MIDI tuningsystem comma53
d2e4d4c2 {d}c4 B2 | B2 d4 c4 B2B4A2  | \
w:  ARANAĞME  |   | 
A2c4B4A2 A4 G2 | G2 _1/4B4 A2A2 G2^3/4F2 E2D2  | 
w:   |   | 
D2E2 ^3/4F2G2 A2=B2 ^3/4c2d2 z2 | \
w:   | 
d2 e4 d4 c2{d}c4B2  | B2d4c4B2 B4 A2 | 
w:  ARANAĞME  |   | 
A2 c4 B4 A2A4G2  | G2_1/4B4A2 A2G2 ^3/4F2E2 D2 | \
w:   |   | 
E2 G2^3/4F2 E2D2 ^3/4C2D4z2  | 
w:   | 
|


